X: 3
T: Old Man Dillon
R: jig
M: 6/8
L: 1/8
K: Ador
EAA ABd|edB c2 A|BGG DGG|~B3 BAG|EAA ABd|edB gfg|edc Bcd|1 eAA A2 G:|2 eAA A2 f||gef g2 a|gef gdc|BGG DGG|~B3 BAG|gef g2 a|gef gfg|edc Bcd|eAA A2 f|gef g2 a|gef gdc|BGG DGG|~B3 BAG|EAA ABd|edB gfg|edc Bcd|eAA A2 G||


Tune 2200	Setting 2200

